X:1
T:He Lives on High
T:He Lives on High
T:Liliuokalani of Hawaii, arr  B. B. McKinney
T:Baylus Benjamin McKinney, circa 1921
T:Public Domain Courtesy of the Cyber Hymnal™
T:Public Domain Courtesy of the Cyber Hymnal™
C:Liliuokalani of Hawaii, arr  B. B. McKinney
Z:Public Domain
Z:Courtesy of the Cyber Hymnal™
%%score ( 1 2 ) ( 3 4 )
L:1/8
Q:1/4=100
M:4/4
K:Bb
V:1 treble 
V:2 treble 
V:3 bass 
V:4 bass 
V:1
 FB | [Bd]3 [Ac] [GB]>[^FA] [GB][EG] | [DF]4 [DF]2 [Fd]2 | [Ac] [Ac]2 [^G=B] [Ac][Bd] [ce]>[_Bd] | %4
w: 1.~Christ the|Sav- ior came from Hea- ven’s|glo- ry, To|re- deem the lost from sin and|
w: 2.~He a-|rose from death and all its|sor- row, To|dwell in that land of joy and|
w: 3.~Wea- ry|soul, to Je- sus come con-|fess- ing, Re-|demp- tion from sin He of- fers|
 [Ac]6 FB | [Bd]3 [Ac] [GB]>[^FA] [GB][EG] | [DF]4 [DF]2 BA | G2 cB AA d>c | [DB]6 z || %9
w: shame; On His|brow he wore the thorn- crown|glo- ry, And up-|on Cal- va- ry He took my|blame.|
w: love; He is|com- ing back some glad to-|mor- row, And He’ll|take all His child- ren home a-|bove.|
w: thee; Look to|Je- sus and re- ceive a|bless- ing, There is|life, there is joy and vic- to-|ry!|
"^Refrain" [DF] | [EG]2 [EB]2 [Ge]3 [EG] | [DF]2 [DB]2 [Fd]3 [DB] | %12
w: |||
w: |||
w: |||
 [CA]>[=B,^G] [CA][D_B] [Ec][Ec][=Ge][Ge] | ([Fd]4 [DB]3) [DF] | [EG]2 [EB]2 [Ge]3 [EG] | %15
w: |||
w: |||
w: |||
 [DF]2 [DB]2 [Fd]3 [DB] | [CA]3 [DB] [Fd] [Ec]2 [CA] | [DB]6 |] %18
w: |||
w: |||
w: |||
V:2
 FB | x8 | x8 | x8 | x6 FB | x8 | x6 BA | E4 E4 | x7 || x | x8 | x8 | x8 | x8 | x8 | x8 | x8 | %17
 x6 |] %18
V:3
 z2 | (B,,F,[B,D]F,) (E,B,[G,E]B,) | (B,,F,[B,D]F,) (B,,F,) (B,F,) | %3
w: |~ * * * ~ * * *|~ * * * ~ * ~ *|
 (F,,F,) ([A,E]F,) (F,,F,[A,E]F,) | (F,,F,A,F, F,,2) z2 | (B,,F,[B,D]F,) (E,B,[G,E]B,) | %6
w: ~ * ~ * ~ * * *|~ * * * *|~ * * * ~ * * *|
 (B,,F,[B,D]F,) (B,,F,[B,D]F,) | (E,G,B,G,) (F,G,F,A,) | (B,F,D,F, B,,2) z || [B,,B,] | %10
w: ~ * * * ~ * * *|~ * * * ~ * * *|~ * * * *|He|
 [E,B,]2 [E,G,]2 [E,B,]3 [E,B,] | [B,,B,]2 [B,,F,]2 [B,,B,]3 [B,,F,] | %12
w: lives on high, He|lives on high, Tri-|
 F,>F, F,[F,B,] [F,A,][F,A,][F,A,][F,A,] | ([B,,B,]4 [B,,F,]3) [B,,B,] | %14
w: umph- ant o- ver sin and all its|stain; * He|
 [E,B,]2 [E,G,]2 [E,B,]3 [E,B,] | [B,,B,]2 [B,,F,]2 [B,,B,]3 [B,,F,] | F,3 F, [F,B,] [F,A,]2 F, | %17
w: lives on high, He|lives on high, Some|day He’s com- ing a-|
 [B,,F,]6 |] %18
w: gain.|
V:4
 x2 | x8 | x8 | x8 | x4 F,,2 x2 | x8 | x8 | x8 | x4 B,,2 x || x | x8 | x8 | F,>F, F, x5 | x8 | x8 | %15
 x8 | x7 F, | x6 |] %18

